X: 95
T: Salve regina
N: Derived from Mar2085-Salve_regina.krn
C: Johannes Martini
%%abc-version 2.0
%%abcx-abcm2ps-target-version 5.9.1 (29 Sep 2008)
%%abc-creator hum2abc beta
%%abcx-conversion-date 2019/02/17 07:19:42
%%abc-edited-by Jesse Rodin
%%abc-edited-by Chris Gage 09-23-2014
%%abcx-initial-encoding-date 2014/10/07/
%%humdrum-veritas 2343342638
%%humdrum-veritas-data 1052025107
%%linebreak <none>
%%barnumbers 0
L: 1/4
M: 4/2
Q: 1/2=120
%%staves [1 2 3 4]
V: 1 clef=treble
V: 2 clef=treble-8
V: 3 clef=treble-8
V: 4 clef=bass
K: F
[V:1] d4_e4 | 
[V:2] z8 | 
[V:3] z8 | 
[V:4] z8 | 
[V:1] d4c4 | 
[V:2] d4_e4 | 
[V:3] z8 | 
[V:4] z8 | 
[V:1] d4G2A2- | 
[V:2] d4c4 | 
[V:3] z8 | 
[V:4] z8 | 
[V:1] AGG4^F2 | 
[V:2] B2G2A4 | 
[V:3] z8 | 
[V:4] z4D,4 | 
[V:1] G4z4 | 
[V:2] G4A2B2 | 
[V:3] G4F4 | 
[V:4] _E,4D,4 | 
[V:1] z8 | 
[V:2] c3BAGG2- | 
[V:3] G4B4 | 
[V:4] C,4B,,2G,,2 | 
[V:1] z4d4 | 
[V:2] G2^F2G4 | 
[V:3] c4B4 | 
[V:4] A,,4G,,4 | 
[V:1] c2c2B2G2 | 
[V:2] z4d3e | 
[V:3] A4B4 | 
[V:4] F,4G,2B,2 | 
[V:1] A4G4 | 
[V:2] f3e/d/edg2- | 
[V:3] c4B2G2 | 
[V:4] F,4G,2E,2 | 
[V:1] z2A2B4 | 
[V:2] g2^f2g3=f | 
[V:3] A4G4 | 
[V:4] D,4z2_E,2 | 
[V:1] c3BAGG2- | 
[V:2] edc3GB2 | 
[V:3] G4z4 | 
[V:4] C,4F,2G,2 | 
[V:1] G2^F2G4 | 
[V:2] A4G4 | 
[V:3] z8 | 
[V:4] D,4G,,4 | 
[V:1] z2F4G2 | 
[V:2] z8 | 
[V:3] B4B4 | 
[V:4] z8 | 
[V:1] A2F2G2B2- | 
[V:2] z8 | 
[V:3] A4G4 | 
[V:4] z8 | 
[V:1] B2A2B4 | 
[V:2] z4z2F2- | 
[V:3] F4B4 | 
[V:4] D,4B,,2D,2- | 
[V:1] z8 | 
[V:2] F2G2A2F2 | 
[V:3] B4c2d2- | 
[V:4] D,C,B,,2A,,2B,,2- | 
[V:1] z4c4 | 
[V:2] G2B3GA2 | 
[V:3] dcd2_e4 | 
[V:4] B,,2B,,2C,4 | 
[V:1] d4G4 | 
[V:2] B2d4c2 | 
[V:3] d4z4 | 
[V:4] B,,4_E,4 | 
[V:1] z2A4B2- | 
[V:2] d2f3ed2- | 
[V:3] z8 | 
[V:4] D,4F,2G,2 | 
[V:1] BAGFB2A2- | 
[V:2] d2c2d4- | 
[V:3] z8 | 
[V:4] _E,4D,2F,2 | 
[V:1] AGG4^F2 | 
[V:2] d2z2z4 | 
[V:3] z8 | 
[V:4] G,2B,2A,4 | 
[V:1] G4z4 | 
[V:2] d2_e3dd2- | 
[V:3] z8 | 
[V:4] G,4F,2D,2 | 
[V:1] z8 | 
[V:2] d2c2d4 | 
[V:3] z8 | 
[V:4] _E,4D,4 | 
[V:1] d2_e3dd2- | 
[V:2] G4g2f2 | 
[V:3] z8 | 
[V:4] z8 | 
[V:1] d2c2d4 | 
[V:2] _e4d4 | 
[V:3] z4d4 | 
[V:4] z4G,,2G,,2- | 
[V:1] G4z4 | 
[V:2] z8 | 
[V:3] d4c4 | 
[V:4] G,,A,,B,,2C,2_E,2- | 
[V:1] z4d4 | 
[V:2] z8 | 
[V:3] B2d3cB2- | 
[V:4] E,2D,2B,,4 | 
[V:1] c4B4 | 
[V:2] z4d3e | 
[V:3] B2A2B4 | 
[V:4] F,4G,4 | 
[V:1] A2G2ABc2- | 
[V:2] f2g2c4 | 
[V:3] z8 | 
[V:4] F,2E,2F,2A,2 | 
[V:1] c2=B2c4 | 
[V:2] d4c4 | 
[V:3] z8 | 
[V:4] G,4C,4 | 
[V:1] A2B3AG2 | 
[V:2] f2d2e2g2- | 
[V:3] z8 | 
[V:4] z8 | 
[V:1] A4G4 | 
[V:2] g2f2d4 | 
[V:3] z8 | 
[V:4] z2F,2G,2B,2- | 
[V:1] z8 | 
[V:2] z2F2G2B2- | 
[V:3] z8 | 
[V:4] B,2A,2B,2G,2 | 
[V:1] z4F4 | 
[V:2] BGA2B4 | 
[V:3] z4B4 | 
[V:4] F,4B,,4 | 
[V:1] G2F4G2 | 
[V:2] z2d3cd2 | 
[V:3] B8 | 
[V:4] _E,2D,2B,,4 | 
[V:1] A2c3BB2- | 
[V:2] c2f3de2 | 
[V:3] A4B4 | 
[V:4] F,4G,4 | 
[V:1] B2A2A3G | 
[V:2] f8 | 
[V:3] c8 | 
[V:4] F,8 | 
[V:1] B4z4 | 
[V:2] d3ef2g2- | 
[V:3] B8 | 
[V:4] B,,8 | 
[V:1] c3Bd4 | 
[V:2] g2f2g2d2 | 
[V:3] A4G4- | 
[V:4] z4z2G,,2 | 
[V:1] G2A2B2A2- | 
[V:2] _e2c2B2z2 | 
[V:3] G2F2G2F2 | 
[V:4] C,2A,,2G,,2D,2 | 
[V:1] AGG4^F2 | 
[V:2] d8 | 
[V:3] B4A4 | 
[V:4] B,,2G,,2D,4 | 
[V:1] G8 ||  
[V:2] d8 ||  
[V:3] G8 ||  
[V:4] G,,8 ||  
[V:1]  [K:F] [K:clef=treble][M:4/2]z8 | 
[V:2]  [K:F] [K:clef=treble-8][M:4/2]B4c4 | 
[V:3]  [K:F] [K:clef=treble-8][M:4/2]z8 | 
[V:4]  [K:F] [K:clef=bass][M:4/2]z8 | 
[V:1] B4c4 | 
[V:2] d4_e4 | 
[V:3] z8 | 
[V:4] z8 | 
[V:1] d4c4 | 
[V:2] d2g4fe | 
[V:3] z8 | 
[V:4] B,,4C,4 | 
[V:1] B2A2G4 | 
[V:2] d4G4 | 
[V:3] B4c4 | 
[V:4] D,4_E,4 | 
[V:1] F4D2F2 | 
[V:2] A4B4 | 
[V:3] d8 | 
[V:4] D,4B,,4 | 
[V:1] E2G3FED | 
[V:2] G6A2 | 
[V:3] c4c4 | 
[V:4] C,4C,4 | 
[V:1] F3GE4 | 
[V:2] F3EG2A2 | 
[V:3] B4c4 | 
[V:4] D,4C,4 | 
[V:1] D2z2c4 | 
[V:2] (3:2:5B4G2A2E2^F2 | 
[V:3] d4A4 | 
[V:4] B,,4A,,4 | 
[V:1] B4A4 | 
[V:2] (3:2:6G3AB2F3EF2 | 
[V:3] z4c4 | 
[V:4] G,,4z4 | 
[V:1] G4A2c2- | 
[V:2] (3:2:5G3AB2c4_e2- | 
[V:3] B4A4 | 
[V:4] z8 | 
[V:1] c2=B2c4 | 
[V:2] (3:2:2e2d4c4 | 
[V:3] G4z2A2 | 
[V:4] z4C,4 | 
[V:1] z4F4 | 
[V:2] e4d4 | 
[V:3] G2c4=B2 | 
[V:4] C,4D,4 | 
[V:1] E2G3FE2 | 
[V:2] z2G2A2c2- | 
[V:3] c4z4 | 
[V:4] C,4C,4 | 
[V:1] D4C4 | 
[V:2] c2=B2c4 | 
[V:3] z8 | 
[V:4] G,,4z4 | 
[V:1] F4G4 | 
[V:2] A2B3Gc2 | 
[V:3] z8 | 
[V:4] z8 | 
[V:1] G4F2A2 | 
[V:2] B2_e2d2f2 | 
[V:3] z4F4 | 
[V:4] z8 | 
[V:1] B2d3cB2- | 
[V:2] _e2d2B2B2 | 
[V:3] G4G4 | 
[V:4] z8 | 
[V:1] B2A2B2AG | 
[V:2] c4B4 | 
[V:3] F4G3A | 
[V:4] z8 | 
[V:1] F2G2A4 | 
[V:2] d4e2f2 | 
[V:3] B4c4 | 
[V:4] B,,4A,,4 | 
[V:1] G2F2B4 | 
[V:2] d4B2d2 | 
[V:3] B8 | 
[V:4] B,,4G,,2G,,2- | 
[V:1] c4B3c | 
[V:2] e2f2B2d2- | 
[V:3] A4G2B2- | 
[V:4] G,,2^F,,2G,,4 | 
[V:1] d2G2A2c2 | 
[V:2] d2c4A2 | 
[V:3] BAG4^F2 | 
[V:4] B,,2C,2A,,4 | 
[V:1] BAGFE2D2- | 
[V:2] B3GA2F2 | 
[V:3] G2B2c2d2 | 
[V:4] G,,4z4 | 
[V:1] D2G4^F2 | 
[V:2] G2E2D4 | 
[V:3] B2G2A4 | 
[V:4] z8 | 
[V:1] G8 ||  
[V:2] d8 ||  
[V:3] G8 ||  
[V:4] G,,8 ||  
[V:1]  [K:F] [K:clef=treble][M:4/2]B8 | 
[V:2]  [K:F] [K:clef=treble-8][M:4/2]B8 | 
[V:3]  [K:F] [K:clef=treble-8][M:4/2]B4G4 | 
[V:4]  [K:F] [K:clef=bass][M:4/2]z8 | 
[V:1] A4G4 | 
[V:2] c8 | 
[V:3] F4E4 | 
[V:4] z8 | 
[V:1] F2B3AF2 | 
[V:2] d8 | 
[V:3] D2G3AB2- | 
[V:4] z8 | 
[V:1] G2A4B2 | 
[V:2] z4f4 | 
[V:3] B2AGF2D2 | 
[V:4] z8 | 
[V:1] cBAGF2B2- | 
[V:2] c4d4 | 
[V:3] _E3DB,4 | 
[V:4] z8 | 
[V:1] BAA4G2 | 
[V:2] c4B4 | 
[V:3] F4G4 | 
[V:4] z8 | 
[V:1] A4z4 | 
[V:2] A2c3Ad2- | 
[V:3] F6D2 | 
[V:4] z8 | 
[V:1] G4F2B2- | 
[V:2] d2^c2d4 | 
[V:3] E4D2G2- | 
[V:4] z8 | 
[V:1] B2A2G2A2- | 
[V:2] z8 | 
[V:3] G2F2B2c2 | 
[V:4] z8 | 
[V:1] AGG4^F2 | 
[V:2] z8 | 
[V:3] d2B2A4 | 
[V:4] z8 | 
[V:1] G6FE | 
[V:2] G8- | 
[V:3] G2B3cd2- | 
[V:4] z4G,,4 | 
[V:1] D4z4 | 
[V:2] G4B4- | 
[V:3] dcB3AGF | 
[V:4] B,,4G,,4 | 
[V:1] G4A4 | 
[V:2] B4c4 | 
[V:3] E3DF4 | 
[V:4] G,,4F,,4 | 
[V:1] F2B3AGF | 
[V:2] z8 | 
[V:3] D3EF2G2 | 
[V:4] B,,4B,,4 | 
[V:1] E4F4 | 
[V:2] z8 | 
[V:3] A2c4=B2 | 
[V:4] C,4D,4 | 
[V:1] (3:2:5E4F2G2F2E2 | 
[V:2] G4A4 | 
[V:3] c8 | 
[V:4] C,4C,4 | 
[V:1] D3EF2G2- | 
[V:2] B4B4- | 
[V:3] F4D2_E2- | 
[V:4] B,,4z4 | 
[V:1] GFF4E2 | 
[V:2] B2A2G4 | 
[V:3] E2F2C4 | 
[V:4] z8 | 
[V:1] F6D2 | 
[V:2] F4z4 | 
[V:3] D2F3GAB | 
[V:4] B,,4D,4 | 
[V:1] E2F2G3F | 
[V:2] G4G4 | 
[V:3] c8 | 
[V:4] C,8 | 
[V:1] D4z2B2- | 
[V:2] F4G3A | 
[V:3] A4B2G2- | 
[V:4] D,4B,,4 | 
[V:1] Bcd3cB2- | 
[V:2] B3cd2_e2 | 
[V:3] GAB4_E2 | 
[V:4] G,,4z4 | 
[V:1] B2A2B4 | 
[V:2] c4B2d2- | 
[V:3] F3GF2D2 | 
[V:4] z4B,,4 | 
[V:1] z4F2G2 | 
[V:2] d2c2d4 | 
[V:3] E4D2G2 | 
[V:4] A,,4B,,4 | 
[V:1] A2B2c2A2 | 
[V:2] z4z2c2 | 
[V:3] F2G2A4 | 
[V:4] A,,2G,,4^F,,2 | 
[V:1] B4A2G2 | 
[V:2] B2G2A2c2- | 
[V:3] G4F2E2 | 
[V:4] G,,4z4 | 
[V:1] F2D2E2G2- | 
[V:2] c2B2c2G2 | 
[V:3] D4C2_E2 | 
[V:4] z8 | 
[V:1] G2^F2G4 | 
[V:2] A4G2B2 | 
[V:3] D4z2G2 | 
[V:4] z8 | 
[V:1] A2B2G4 | 
[V:2] A2d2c2B2 | 
[V:3] F2D2E2G2- | 
[V:4] z8 | 
[V:1] c4B2A2- | 
[V:2] A4G2c2- | 
[V:3] G2F2G2A2 | 
[V:4] z8 | 
[V:1] AGG4^F2 | 
[V:2] c2B2A4 | 
[V:3] F2G2D4 | 
[V:4] z8 | 
[V:1] G8 ||  
[V:2] G8 ||  
[V:3] G8 & d8 ||  
[V:4] G,,8 ||  
[V:1]  [K:F] [K:clef=treble][M:2/1]B8- | 
[V:2]  [K:F] [K:clef=treble-8][M:2/1]G2B3cd2 | 
[V:3]  [K:F] [K:clef=treble-8][M:2/1]z8 | 
[V:4]  [K:F] [K:clef=bass][M:2/1]z8 | 
[V:1] B8- | 
[V:2] _e2d3=ef2 | 
[V:3] z8 | 
[V:4] G,,2B,,3C,D,2 | 
[V:1] B8- | 
[V:2] g2fed4 | 
[V:3] z8 | 
[V:4] _E,2D,3=E,F,2 | 
[V:1] B8 | 
[V:2] _e2d3cBA | 
[V:3] z8 | 
[V:4] G,2F,E,D,4 | 
[V:1] B8- | 
[V:2] G2d3ef2 | 
[V:3] z8 | 
[V:4] _E,2D,3C,B,,A,, | 
[V:1] B8- | 
[V:2] g2f2d4 | 
[V:3] z8 | 
[V:4] G,,2D,3E,F,2 | 
[V:1] B8 | 
[V:2] z8 | 
[V:3] z8 | 
[V:4] G,2F,2D,4 | 
[V:1] c8- | 
[V:2] A2c3de2 | 
[V:3] z8 | 
[V:4] z8 | 
[V:1] c8- | 
[V:2] f2e3dcB | 
[V:3] z8 | 
[V:4] A,,2C,3D,E,2 | 
[V:1] c8- | 
[V:2] A2c3BAG | 
[V:3] z8 | 
[V:4] F,2E,3D,C,B,, | 
[V:1] c8 | 
[V:2] F2G4^F2 | 
[V:3] z8 | 
[V:4] A,,2G,,2A,,4 | 
[V:1] B8 | 
[V:2] G2d4e2 | 
[V:3] z8 | 
[V:4] G,,4z2G,,2 | 
[V:1] A8 | 
[V:2] f2d4cB | 
[V:3] z8 | 
[V:4] D,3E,F,2E,D, | 
[V:1] c8 | 
[V:2] A2B4A2 | 
[V:3] z8 | 
[V:4] C,2B,,2C,4 | 
[V:1] d8- | 
[V:2] B8 | 
[V:3] z8 | 
[V:4] B,,4z2D,2- | 
[V:1] d8 | 
[V:2] z8 | 
[V:3] z8 | 
[V:4] D,E,F,2G,2B,2- | 
[V:1] z8 | 
[V:2] B8- | 
[V:3] z8 | 
[V:4] B,A,G,F,G,2D,2 | 
[V:1] z8 | 
[V:2] B8 | 
[V:3] z8 | 
[V:4] _E,2D,C,B,,2B,2- | 
[V:1] z8 | 
[V:2] c8 | 
[V:3] z8 | 
[V:4] B,2A,G,A,G,F,E, | 
[V:1] z8 | 
[V:2] B8 | 
[V:3] z8 | 
[V:4] D,2G,3A,B,G, | 
[V:1] z8 | 
[V:2] A8 | 
[V:3] z8 | 
[V:4] C2F,3G,A,F, | 
[V:1] z4z2G2 | 
[V:2] c8 | 
[V:3] z8 | 
[V:4] (3:2:4A,4G,2F,2E,4 | 
[V:1] F2B3cd2- | 
[V:2] d8- | 
[V:3] z8 | 
[V:4] D,2G,3A,B,2- | 
[V:1] d2cBA4 | 
[V:2] d8 | 
[V:3] z8 | 
[V:4] B,2A,G,^F,3E, | 
[V:1] D3EF2G2 | 
[V:2] z4d3e | 
[V:3] z8 | 
[V:4] G,4z4 | 
[V:1] F2D3EF2 | 
[V:2] f2g2f2d2- | 
[V:3] z8 | 
[V:4] B,,8- | 
[V:1] B,2D3EF2 | 
[V:2] def4B2- | 
[V:3] z8 | 
[V:4] B,,8 | 
[V:1] E2G4FE | 
[V:2] B2AGA4 | 
[V:3] z8 | 
[V:4] C,8 | 
[V:1] D2F4G2 | 
[V:2] z2d4cB | 
[V:3] z8 | 
[V:4] B,,8 | 
[V:1] A3Bc4- | 
[V:2] c2A3Bcd | 
[V:3] z8 | 
[V:4] A,,8 | 
[V:1] c2BAG4 | 
[V:2] e2f2e4 | 
[V:3] z8 | 
[V:4] C,8 | 
[V:1] F4z2A2 | 
[V:2] z2A2B2d2- | 
[V:3] z8 | 
[V:4] D,8- | 
[V:1] B2d3cBA | 
[V:2] dcBAB2AG | 
[V:3] z8 | 
[V:4] D,8- | 
[V:1] B2AGF2B2- | 
[V:2] F2B2A2d2- | 
[V:3] z8 | 
[V:4] D,8 | 
[V:1] B2A2G3F | 
[V:2] d2c2B4 | 
[V:3] z8 | 
[V:4] z8 | 
[V:1] F8 & A8 ||  
[V:2] A8 ||  
[V:3] z8 ||  
[V:4] D,8 ||  
[V:1]  [K:F] [K:clef=treble][M:4/2]G4G4- | 
[V:2]  [K:F] [K:clef=treble-8][M:4/2]G8- | 
[V:3]  [K:F] [K:clef=treble-8][M:4/2]z8 | 
[V:4]  [K:F] [K:clef=bass][M:4/2]G,,3A,,B,,2C,2- | 
[V:1] G2F2G4 | 
[V:2] G8 | 
[V:3] z8 | 
[V:4] C,2D,2_E,4 | 
[V:1] A4B4- | 
[V:2] d8 | 
[V:3] f8 | 
[V:4] D,4B,,4 | 
[V:1] B2AGA4 | 
[V:2] z4f4- | 
[V:3] c8 | 
[V:4] F,8 | 
[V:1] B4A4 | 
[V:2] f8 | 
[V:3] d4c4 | 
[V:4] B,,4F,4 | 
[V:1] G2B3AG2- | 
[V:2] d8 | 
[V:3] B4G4 | 
[V:4] G,8 | 
[V:1] G2^FEF4 | 
[V:2] c8 | 
[V:3] A8 | 
[V:4] z8 | 
[V:1] G4z4 | 
[V:2] d4c4 | 
[V:3] G8 | 
[V:4] G,,2B,,2C,2_E,2- | 
[V:1] z8 | 
[V:2] B4d4- | 
[V:3] z8 | 
[V:4] E,D,G,2F,2B,2- | 
[V:1] z4G4 | 
[V:2] d2c2c3B | 
[V:3] z8 | 
[V:4] B,A,G,F,_E,4 | 
[V:1] F4A4 | 
[V:2] d8 | 
[V:3] z8 | 
[V:4] D,4F,4 | 
[V:1] G2E3FG2 | 
[V:2] z8 | 
[V:3] c8 | 
[V:4] E,2C,3D,E,2 | 
[V:1] F2A4G2 | 
[V:2] z8 | 
[V:3] A4B4 | 
[V:4] D,2F,2E,2G,2 | 
[V:1] A2GFE4 | 
[V:2] z8 | 
[V:3] c8 | 
[V:4] F,2G,2A,4 | 
[V:1] D4z4 | 
[V:2] z8 | 
[V:3] d8 | 
[V:4] D,3E,F,2G,2- | 
[V:1] G4G4 | 
[V:2] z8 | 
[V:3] z8 | 
[V:4] G,F,E,D,C,2_E,2 | 
[V:1] F2EDE2D2- | 
[V:2] z8 | 
[V:3] z8 | 
[V:4] D,2C,B,,C,2B,,2 | 
[V:1] D2G4^F2 | 
[V:2] z8 | 
[V:3] z8 | 
[V:4] G,,4A,,4 | 
[V:1] G4D4 | 
[V:2] z8 | 
[V:3] z8 | 
[V:4] G,,2G,4F,2 | 
[V:1] z8 | 
[V:2] B4c4- | 
[V:3] g4g4 | 
[V:4] G,4C,4 | 
[V:1] z8 | 
[V:2] c4B4 | 
[V:3] f2ede2d2- | 
[V:4] F,4G,4 | 
[V:1] z8 | 
[V:2] A2G2A4 | 
[V:3] d2g4^f2 | 
[V:4] F,2E,2D,4 | 
[V:1] z4G4 | 
[V:2] G4B4 | 
[V:3] g4d4 | 
[V:4] G,,8 | 
[V:1] F4D4 | 
[V:2] B4F4 | 
[V:3] z8 | 
[V:4] B,,8 | 
[V:1] C2E2D2C2- | 
[V:2] z8 | 
[V:3] g4f4 | 
[V:4] C,4D,2F,2 | 
[V:1] C2=B,2C4 | 
[V:2] z8 | 
[V:3] d4c2e2 | 
[V:4] G,4C,4 | 
[V:1] z4F4 | 
[V:2] z8 | 
[V:3] d2c4=B2 | 
[V:4] B,,2C,2D,4 | 
[V:1] E4(3D2E2F2 | 
[V:2] A4B4 | 
[V:3] c4d4 | 
[V:4] C,4B,,4 | 
[V:1] G2A2B2G2- | 
[V:2] c4B4 | 
[V:3] e4d4 | 
[V:4] z4B,,4 | 
[V:1] G2c4=B2 | 
[V:2] G4z4 | 
[V:3] c4d4 | 
[V:4] C,4G,,2G,2 | 
[V:1] c4A2c2 | 
[V:2] z8 | 
[V:3] c8 | 
[V:4] A,2F,4F,2 | 
[V:1] B2G4^F2 | 
[V:2] B4A4 | 
[V:3] z8 | 
[V:4] G,4D,4 | 
[V:1] G2FED4 | 
[V:2] B4z4 | 
[V:3] G8 | 
[V:4] G,,2B,,3A,,G,,2- | 
[V:1] z4G4 | 
[V:2] z8 | 
[V:3] A4B4 | 
[V:4] G,,2^F,,2G,,2G,2- | 
[V:1] A4B2G2- | 
[V:2] z8 | 
[V:3] A4G4- | 
[V:4] G,2F,2G,2_E,2- | 
[V:1] GFF4E2 | 
[V:2] z8 | 
[V:3] G4G4 | 
[V:4] E,2D,2C,4 | 
[V:1] F8 | 
[V:2] c4B4 | 
[V:3] F4z4 | 
[V:4] z2A,,2B,,2C,2 | 
[V:1] z8 | 
[V:2] A4G2B2- | 
[V:3] F4G4 | 
[V:4] D,4G,,2G,,2- | 
[V:1] z8 | 
[V:2] BAG4^F2 | 
[V:3] B4c4 | 
[V:4] G,,F,,B,,2A,,4 | 
[V:1] z8 | 
[V:2] G4z4 | 
[V:3] B4A2d2- | 
[V:4] G,,2G,2F,2E,D, | 
[V:1] z4F4 | 
[V:2] z8 | 
[V:3] d2^c2d4 | 
[V:4] E,4D,4 | 
[V:1] G4B4 | 
[V:2] z8 | 
[V:3] z2e2d2g2- | 
[V:4] C,2G,3F,G,2 | 
[V:1] c4B4 | 
[V:2] z8 | 
[V:3] g2^f2g2d2 | 
[V:4] A,4G,4 | 
[V:1] A2d4^c2 | 
[V:2] z8 | 
[V:3] f4e4 | 
[V:4] D,2F,2G,2A,2 | 
[V:1] d4z4 | 
[V:2] z8 | 
[V:3] d4z4 | 
[V:4] D,4G,,4 | 
[V:1] z8 | 
[V:2] z8 | 
[V:3] z4G4 | 
[V:4] A,,2B,,3G,,B,,2 | 
[V:1] z4G4 | 
[V:2] z8 | 
[V:3] A2B3GB2 | 
[V:4] A,,2G,,2z2G,2 | 
[V:1] A2B3GB2 | 
[V:2] z8 | 
[V:3] A2G2z2d2- | 
[V:4] F,2G,3F,D,2 | 
[V:1] A2G2A2c2- | 
[V:2] z8 | 
[V:3] d2e2f3d | 
[V:4] F,2E,2D,2z2 | 
[V:1] cAc2B2A2- | 
[V:2] z8 | 
[V:3] f2e2d4 | 
[V:4] A,4B,2F,2- | 
[V:1] AGG4^F2 | 
[V:2] z8 | 
[V:3] c2B2A4 | 
[V:4] F,E,G,2D,4 | 
[V:1] G8 ||  
[V:2] z8 ||  
[V:3] G8 ||  
[V:4] G,,8 ||  
[V:1]  [K:F] [K:clef=treble][M:2/1]G8 | 
[V:2]  [K:F] [K:clef=treble-8][M:2/1]G4G2B2- | 
[V:3]  [K:F] [K:clef=treble-8][M:2/1]z8 | 
[V:4]  [K:F] [K:clef=bass][M:2/1]z8 | 
[V:1] D8 | 
[V:2] Bcdef2d2- | 
[V:3] z8 | 
[V:4] z8 | 
[V:1] F8- | 
[V:2] d2cBA2d2- | 
[V:3] z8 | 
[V:4] z8 | 
[V:1] F8 | 
[V:2] dcB2A4 | 
[V:3] z8 | 
[V:4] z8 | 
[V:1] G4G,2B,2- | 
[V:2] G8 | 
[V:3] z8 | 
[V:4] z8 | 
[V:1] B,CDEF2D2- | 
[V:2] D8 | 
[V:3] z8 | 
[V:4] z8 | 
[V:1] D2CB,A,2D2- | 
[V:2] F8- | 
[V:3] z8 | 
[V:4] z8 | 
[V:1] DCB,2A,4 | 
[V:2] F8 | 
[V:3] z8 | 
[V:4] z8 | 
[V:1] z8 | 
[V:2] G8 | 
[V:3] G8 | 
[V:4] G,,4G,,2B,,2- | 
[V:1] z8 | 
[V:2] z8 | 
[V:3] D8 | 
[V:4] B,,C,D,E,F,2D,2- | 
[V:1] z8 | 
[V:2] z8 | 
[V:3] F8- | 
[V:4] D,2C,B,,A,,2D,2- | 
[V:1] z8 | 
[V:2] z8 | 
[V:3] F8 | 
[V:4] D,C,B,,2A,,4 | 
[V:1] z8 | 
[V:2] z8 | 
[V:3] G8 | 
[V:4] G,,8 | 
[V:1] z8 | 
[V:2] z8 | 
[V:3] z2B4c2 | 
[V:4] G,8 | 
[V:1] z8 | 
[V:2] z8 | 
[V:3] d2e2f2d2- | 
[V:4] D,8 | 
[V:1] z8 | 
[V:2] z8 | 
[V:3] d2cBA2d2- | 
[V:4] F,8- | 
[V:1] z8 | 
[V:2] z8 | 
[V:3] dcB2A2GF | 
[V:4] F,8 | 
[V:1] z8 | 
[V:2] z8 | 
[V:3] E3CG4- | 
[V:4] G,4B,4 | 
[V:1] z8 | 
[V:2] z8 | 
[V:3] G2^F2^F2E2 | 
[V:4] A,8 | 
[V:1] G6A2 | 
[V:2] B6c2 | 
[V:3] G8 | 
[V:4] G,4z2C,2- | 
[V:1] BAGFE2G2- | 
[V:2] d4z2c2- | 
[V:3] G8- | 
[V:4] C,2B,,2C,2_E,2- | 
[V:1] GAB2G2c2- | 
[V:2] c2B2c2_e2- | 
[V:3] G8- | 
[V:4] E,2D,2C,3B,, | 
[V:1] c2B2c2_e2- | 
[V:2] e2d2c2BA | 
[V:3] G8- | 
[V:4] G,,4C,4- | 
[V:1] e2d2c4 | 
[V:2] G2d2_e2dc | 
[V:3] G8 | 
[V:4] C,2B,,2C,4 | 
[V:1] B8 ||  
[V:2] d8 ||  
[V:3] G8 ||  
[V:4] G,,8 ||  
[V:1]  [K:F] [K:clef=treble][M:2/1]z8 | 
[V:2]  [K:F] [K:clef=treble-8][M:2/1]G8 | 
[V:3]  [K:F] [K:clef=treble-8][M:2/1]z8 | 
[V:4]  [K:F] [K:clef=bass][M:2/1]z8 | 
[V:1] F8 | 
[V:2] d8 | 
[V:3] z8 | 
[V:4] z8 | 
[V:1] G4A4 | 
[V:2] _e8 | 
[V:3] z8 | 
[V:4] z8 | 
[V:1] B8 | 
[V:2] d4d4- | 
[V:3] z8 | 
[V:4] G,,8 | 
[V:1] A8 | 
[V:2] d8- | 
[V:3] F8 | 
[V:4] D,8 | 
[V:1] G8 | 
[V:2] d4c4 | 
[V:3] G8 | 
[V:4] _E,8 | 
[V:1] F4z2D2- | 
[V:2] d4z4 | 
[V:3] A8 | 
[V:4] D,8 | 
[V:1] D2E2F2G2 | 
[V:2] d8 | 
[V:3] z4B4 | 
[V:4] D,8 | 
[V:1] A2c3BA2- | 
[V:2] c8 | 
[V:3] A4F4 | 
[V:4] z8 | 
[V:1] A2GFE3D | 
[V:2] B8 | 
[V:3] G8 | 
[V:4] z8 | 
[V:1] (3:2:2F8D4 | 
[V:2] A4B4 | 
[V:3] F8 | 
[V:4] D,8 | 
[V:1] (3:2:4E6F2G2A2 | 
[V:2] c8 | 
[V:3] z8 | 
[V:4] C,8 | 
[V:1] (3:2:4B6A2G2F2 | 
[V:2] d8 | 
[V:3] z8 | 
[V:4] B,,8 | 
[V:1] E6G2- | 
[V:2] G8 | 
[V:3] c8- | 
[V:4] C,8 | 
[V:1] G2F2E3D | 
[V:2] z8 | 
[V:3] c8 | 
[V:4] C,8 | 
[V:1] F2G2AGFE | 
[V:2] d4d4- | 
[V:3] B4A2B2- | 
[V:4] D,8 | 
[V:1] D2G4^F2 | 
[V:2] d2cBc4 | 
[V:3] B2AGA4 | 
[V:4] z8 | 
[V:1] G2B3cd2 | 
[V:2] B2d3ef2- | 
[V:3] z4G4 | 
[V:4] B,,8 | 
[V:1] c2A3Bc2 | 
[V:2] fec3def | 
[V:3] A3Bc4- | 
[V:4] A,,8 | 
[V:1] B2G3FD2 | 
[V:2] g2fed4 | 
[V:3] c2BAB4 | 
[V:4] G,,8 | 
[V:1] E2F2G4 | 
[V:2] c4z2e2- | 
[V:3] c8 | 
[V:4] C,8 | 
[V:1] c8 | 
[V:2] efg4fe | 
[V:3] z8 | 
[V:4] C,8 | 
[V:1] B8 | 
[V:2] d3cB2G2 | 
[V:3] z8 | 
[V:4] G,,8 | 
[V:1] A8 | 
[V:2] A2F3EF2 | 
[V:3] c8 | 
[V:4] z8 | 
[V:1] G4G4- | 
[V:2] G2_E3FG2 | 
[V:3] B8 | 
[V:4] z8 | 
[V:1] G4^F4 | 
[V:2] D4z2c2 | 
[V:3] A8 | 
[V:4] z8 | 
[V:1] G2B3cd2- | 
[V:2] B2d3cBA | 
[V:3] G4G4- | 
[V:4] z8 | 
[V:1] d2cBA4 | 
[V:2] B4c3d | 
[V:3] G4^F4 | 
[V:4] z8 | 
[V:1] G8 | 
[V:2] _e4d2c2- | 
[V:3] G4z4 | 
[V:4] C,8 | 
[V:1] z8 | 
[V:2] c2B2G2A2 | 
[V:3] G8 | 
[V:4] C,8 | 
[V:1] z8 | 
[V:2] B6d2- | 
[V:3] d8 | 
[V:4] B,,8 | 
[V:1] G8 | 
[V:2] d2cBc4 | 
[V:3] _e8 | 
[V:4] z8 | 
[V:1] d8 | 
[V:2] B2G4F2 | 
[V:3] d4d4- | 
[V:4] z8 | 
[V:1] _e8 | 
[V:2] G4A4 | 
[V:3] d2cBc4 | 
[V:4] z8 | 
[V:1] d4d4- | 
[V:2] Bcdef2g2- | 
[V:3] d4z4 | 
[V:4] z8 | 
[V:1] d2cBc4 | 
[V:2] gf_ed_e2dc | 
[V:3] z8 | 
[V:4] z8 | 
[V:1] d2B4AG | 
[V:2] B2d4cB | 
[V:3] z8 | 
[V:4] B,,8 | 
[V:1] F2G4^F2 | 
[V:2] A2G2A4 | 
[V:3] z8 | 
[V:4] D,8 | 
[V:1] G4F2B2- | 
[V:2] G4B4 | 
[V:3] d8 | 
[V:4] z8 | 
[V:1] B2AGAGFE | 
[V:2] F8 | 
[V:3] c8 | 
[V:4] z8 | 
[V:1] D6F2- | 
[V:2] z4F4- | 
[V:3] B6d2- | 
[V:4] D,8 | 
[V:1] F2G2A3G | 
[V:2] F2E2F4 | 
[V:3] d2c2A2B2 | 
[V:4] D,8 | 
[V:1] E2G4FE | 
[V:2] (3:2:2G8A4 | 
[V:3] c8 | 
[V:4] C,8 | 
[V:1] D4z4 | 
[V:2] (3B6c2d4 | 
[V:3] z8 | 
[V:4] B,,8 | 
[V:1] G8- | 
[V:2] _e6c2 | 
[V:3] z8 | 
[V:4] C,8 | 
[V:1] G4A4- | 
[V:2] c4z2e2 | 
[V:3] z8 | 
[V:4] C,8 | 
[V:1] A4B4- | 
[V:2] f2d3cBA | 
[V:3] z8 | 
[V:4] D,8 | 
[V:1] B4A4 | 
[V:2] B2G4^F2 | 
[V:3] z8 | 
[V:4] z8 | 
[V:1] G6FE | 
[V:2] G2_E3FG2 | 
[V:3] G8 | 
[V:4] z8 | 
[V:1] F4D2G2- | 
[V:2] D4z4 | 
[V:3] A4B4- | 
[V:4] z8 | 
[V:1] GFEDC2c2- | 
[V:2] G4A4 | 
[V:3] B4A4 | 
[V:4] z8 | 
[V:1] c2B2A2GA | 
[V:2] B4c4- | 
[V:3] G4F4 | 
[V:4] z8 | 
[V:1] BAGFE3D | 
[V:2] c2B2B4- | 
[V:3] G8 | 
[V:4] z8 | 
[V:1] F8 | 
[V:2] B2AGA4 | 
[V:3] F8 | 
[V:4] z8 | 
[V:1] D6E2 | 
[V:2] (3B4F4G4 | 
[V:3] z8 | 
[V:4] B,,8 | 
[V:1] F2G2A4 | 
[V:2] (3A4E4F4 | 
[V:3] z8 | 
[V:4] A,,8 | 
[V:1] B4A2G2- | 
[V:2] G2B3cd2 | 
[V:3] z8 | 
[V:4] G,,8 | 
[V:1] GFEDE4 | 
[V:2] _edcBc4 | 
[V:3] A8 | 
[V:4] C,8 | 
[V:1] D8 | 
[V:2] d4f4- | 
[V:3] B8 | 
[V:4] z8 | 
[V:1] z4c4 | 
[V:2] f2edc4 | 
[V:3] A8 | 
[V:4] A,,8 | 
[V:1] B2d4c2 | 
[V:2] d2B4c2 | 
[V:3] G4F4 | 
[V:4] B,,8 | 
[V:1] B3AG4 | 
[V:2] _e4d4- | 
[V:3] G4B4- | 
[V:4] G,,8 | 
[V:1] z4B4 | 
[V:2] d2G3AB2 | 
[V:3] B4G4 | 
[V:4] G,,8 | 
[V:1] A2c4A2 | 
[V:2] c2A2c4 | 
[V:3] A8 | 
[V:4] F,,8 | 
[V:1] B4G4 | 
[V:2] B2_e4d2- | 
[V:3] G4B4- | 
[V:4] G,,8 | 
[V:1] z4B4- | 
[V:2] d2c2d2g2- | 
[V:3] B2A2G2FE | 
[V:4] G,,8 | 
[V:1] B2A2G2FE | 
[V:2] g2f2e2dc | 
[V:3] D4z2d2- | 
[V:4] z8 | 
[V:1] D4z2d2- | 
[V:2] B2d2e2f2 | 
[V:3] d2B2c2d2 | 
[V:4] z8 | 
[V:1] d2B2c2d2 | 
[V:2] g4e2d2 | 
[V:3] G2z2A2B2 | 
[V:4] z8 | 
[V:1] G4A4 | 
[V:2] e2g4^f2 | 
[V:3] c2_e2d4 | 
[V:4] z8 | 
[V:1] G8- | 
[V:2] g2d2_e4 | 
[V:3] G6c2- | 
[V:4] z8 | 
[V:1] G8- | 
[V:2] d4c4 | 
[V:3] c2B2c3B | 
[V:4] z8 | 
[V:1] G8- | 
[V:2] _e8 | 
[V:3] G8- | 
[V:4] G,,8- | 
[V:1] G8 ||  
[V:2] d8 ||  
[V:3] G8 ||  
[V:4] G,,8 ||  
[V:1]  [K:F] [K:clef=treble][M:2/1]G8- | 
[V:2]  [K:F] [K:clef=treble-8][M:2/1]G4c4 | 
[V:3]  [K:F] [K:clef=treble-8][M:2/1]z8 | 
[V:4]  [K:F] [K:clef=bass][M:2/1]z8 | 
[V:1] G8- | 
[V:2] B4_e4 | 
[V:3] z8 | 
[V:4] G,,4C,4 | 
[V:1] G8 | 
[V:2] d2d4c2 | 
[V:3] z8 | 
[V:4] B,,4_E,4 | 
[V:1] F8- | 
[V:2] d2B4AG | 
[V:3] d8- | 
[V:4] D,6F,2- | 
[V:1] F8 | 
[V:2] AGF_ED4 | 
[V:3] d8- | 
[V:4] F,2G,2A,4 | 
[V:1] G8 | 
[V:2] z2B4G2 | 
[V:3] d8 | 
[V:4] G,4G,,2B,,2 | 
[V:1] z8 | 
[V:2] A2GF_E4 | 
[V:3] c8- | 
[V:4] C,4C,3B,, | 
[V:1] z8 | 
[V:2] F2G2_E4 | 
[V:3] c8 | 
[V:4] A,,2G,,2A,,2C,2 | 
[V:1] z8 | 
[V:2] D2G4^F2 | 
[V:3] d8 | 
[V:4] B,,2C,2D,4 | 
[V:1] B8- | 
[V:2] G2B3cd2- | 
[V:3] z8 | 
[V:4] G,,2G,3A,B,2- | 
[V:1] B8 | 
[V:2] dcBAB2AG | 
[V:3] z8 | 
[V:4] B,A,G,F,G,4 | 
[V:1] A4c4- | 
[V:2] F2A4G2 | 
[V:3] f8- | 
[V:4] A,2F,4E,2 | 
[V:1] c2BAB4 | 
[V:2] F2_E2F4 | 
[V:3] f8 | 
[V:4] D,2C,2D,4 | 
[V:1] c8- | 
[V:2] G2A2G2c2- | 
[V:3] e4g4- | 
[V:4] C,8 | 
[V:1] c8 | 
[V:2] cBAGA4 | 
[V:3] g2fef4 | 
[V:4] z8 | 
[V:1] B8- | 
[V:2] G2B3cd2- | 
[V:3] g8- | 
[V:4] G,8 | 
[V:1] B4G4 | 
[V:2] d2c2c3B | 
[V:3] g8 | 
[V:4] _E,8 | 
[V:1] A6B2- | 
[V:2] d4c2d2- | 
[V:3] f8- | 
[V:4] D,3E,F,2B,,2- | 
[V:1] B2AGF3E | 
[V:2] dcc4=B2 | 
[V:3] f4d4 | 
[V:4] B,,2C,2D,4 | 
[V:1] G6A2- | 
[V:2] c2c3BA2- | 
[V:3] e6f2- | 
[V:4] C,4z4 | 
[V:1] ABc3BAG | 
[V:2] A2GF_E4 | 
[V:3] f2edc3B | 
[V:4] z4G,4 | 
[V:1] F4G4 | 
[V:2] D4d2_e2 | 
[V:3] d8 | 
[V:4] A,2B,4A,G, | 
[V:1] A2B4AG | 
[V:2] f2d4cB | 
[V:3] z4d4- | 
[V:4] F,2B,,4C,2 | 
[V:1] F2G4^F2 | 
[V:2] A2G2A4 | 
[V:3] d2c2d4 | 
[V:4] D,2_E,2D,4 | 
[V:1] G8 ||  
[V:2] G8 ||  
[V:3] d8 ||  
[V:4] G,,8 ||  
[V:1]  [K:F] [K:clef=treble][M:4/2]d8 | 
[V:2]  [K:F] [K:clef=treble-8][M:4/2]d4f4 | 
[V:3]  [K:F] [K:clef=treble-8][M:4/2]z8 | 
[V:4]  [K:F] [K:clef=bass][M:4/2]z8 | 
[V:1] G2B3AGF | 
[V:2] e2d3cd2 | 
[V:3] z8 | 
[V:4] G,4G,4 | 
[V:1] G4F4 | 
[V:2] edcBA4 | 
[V:3] z4d4- | 
[V:4] C,4D,4 | 
[V:1] A4G4 | 
[V:2] z2d4c2 | 
[V:3] d4G4 | 
[V:4] F,4E,4 | 
[V:1] z2F3GA2 | 
[V:2] d4c4 | 
[V:3] B4A4 | 
[V:4] D,4z4 | 
[V:1] [M:2/1](3:2:6B3A G FG2E4 | 
[V:2] B2d3cB2 | 
[V:3] G8 | 
[V:4] z8 | 
[V:1] [M:4/2]F4z4 | 
[V:2] A4G2B2- | 
[V:3] F4G4- | 
[V:4] D,4_E,4- | 
[V:1] G4F4 | 
[V:2] BAG2A2F2 | 
[V:3] G2c3AB2 | 
[V:4] E,4D,4 | 
[V:1] E2G2F2D2- | 
[V:2] G4z2F2 | 
[V:3] c4z4 | 
[V:4] C,4D,4 | 
[V:1] DCF2E4 | 
[V:2] G2B4A2 | 
[V:3] z8 | 
[V:4] B,,4C,4 | 
[V:1] D2z2c4 | 
[V:2] [M:2/1](3:2:5B3cd2e4f2 | 
[V:3] z8 | 
[V:4] B,,4z4 | 
[V:1] B4c4 | 
[V:2] (3:2:6g3fd2f2e3d | 
[V:3] z4c4 | 
[V:4] z8 | 
[V:1] d4G4 | 
[V:2] [M:4/2]d4e4 | 
[V:3] B4c4 | 
[V:4] z8 | 
[V:1] F4z4 | 
[V:2] d2f2edcB | 
[V:3] d4G4 | 
[V:4] B,,4C,4 | 
[V:1] A4B4 | 
[V:2] A4G2B2 | 
[V:3] F4z4 | 
[V:4] D,4G,,4 | 
[V:1] c4BAGF | 
[V:2] A2F2D2d2- | 
[V:3] z4G4 | 
[V:4] A,,4B,,4 | 
[V:1] E4D4 | 
[V:2] dcc2d4 | 
[V:3] A4B4 | 
[V:4] C,4B,,4 | 
[V:1] z4G4 | 
[V:2] e2f2d3c | 
[V:3] [M:2/1](3:2:5c4A2B2G2B2 | 
[V:4] A,,4G,,2G,,2- | 
[V:1] A4[M:2/1](3:2:2B4G2 | 
[V:2] A2c2[M:2/1]B2(3:2:2c_e2 | 
[V:3] (3:2:4c2A4G4_E2 | 
[V:4] G,,2^F,,2G,,4 | 
[V:1] (3:2:2A4A2B2(3:2:2AG2 | 
[V:2] (3:2:1d2f2(3_ed4c2 | 
[V:3] (3:2:5F2D2F2G2_E4 | 
[V:4] z8 | 
[V:1] (3:2:5F4A2-A2F2G2 | 
[V:2] (3:2:5d4c2A2d2B2 | 
[V:3] (3:2:4D4z2D4_E2 | 
[V:4] z8 | 
[V:1] (3:2:5E2F2D2G4^F2 | 
[V:2] (3:2:5c2A2B2G2A4 | 
[V:3] (3:2:5C2D2B,2_E2D4 | 
[V:4] z8 | 
[V:1] [M:4/2]G8 |]  
[V:2] [M:4/2]G8 |]  
[V:3] [M:4/2]G8 |]  
[V:4] G,,8 |]  



